X:40
T: Paddy Taylor's
S: J. O'Sullivan
Z: B.Black
R: reel
M: 4/4
L: 1/8
K: D
FADF ABAF |GE=cE dEcE |FADF ABAF | GE=cE ED D2 :|
Addc d3 A |Beed e3 e |fgfe d3 A | (3Bcd AF ED D2 |
Addc d3 A |Bdef g3 g |afge d2 dA | (3Bcd AF ED D2 :|
FEFG AddF |GddF GddA |FEFG Addc | ABGA ED D2 :|
